icons/Map/hotel-bed-fill.svg

<svg viewBox="0 0 24 24" xmlns="http://www.w3.org/2000/svg"><path d="M22 11V20H20V17H4V20H2V4H4V14H12V7H18C20.2091 7 22 8.79086 22 11ZM8 13C6.34315 13 5 11.6569 5 10C5 8.34315 6.34315 7 8 7C9.65685 7 11 8.34315 11 10C11 11.6569 9.65685 13 8 13Z"/></svg>

<svg xmlns="http://www.w3.org/2000/svg" viewBox="0 0 24 24">
    <g>
        <path fill="none" d="M0 0h24v24H0z"/>
        <path d="M22 11v9h-2v-3H4v3H2V4h2v10h8V7h6a4 4 0 0 1 4 4zM8 13a3 3 0 1 1 0-6 3 3 0 0 1 0 6z"/>
    </g>
</svg>
